packages/client-app/static/animations/inbox-zero/oasis/oasis.hyperesources/desertfreckles.svg

<svg xmlns="http://www.w3.org/2000/svg" preserveAspectRatio="xMidYMid" width="776.656" height="386.688" viewBox="0 0 776.656 386.688"><defs><style>.cls-1 { fill: #e7d8ab; opacity: 0.3; fill-rule: evenodd; }</style></defs><path d="M768.328 167.656c-4.599 0-8.328-3.728-8.328-8.328 0-4.599 3.729-8.328 8.328-8.328 4.6 0 8.328 3.729 8.328 8.328 0 4.6-3.728 8.328-8.328 8.328zm-62 42c-4.599 0-8.328-3.728-8.328-8.328 0-4.599 3.729-8.328 8.328-8.328 4.6 0 8.328 3.729 8.328 8.328 0 4.6-3.728 8.328-8.328 8.328zm0-68c-4.599 0-8.328-3.728-8.328-8.328 0-4.599 3.729-8.328 8.328-8.328 4.6 0 8.328 3.729 8.328 8.328 0 4.6-3.728 8.328-8.328 8.328zm-13-18c-4.599 0-8.328-3.728-8.328-8.328 0-4.599 3.729-8.328 8.328-8.328 4.6 0 8.328 3.729 8.328 8.328 0 4.6-3.728 8.328-8.328 8.328zm-14 18.016c-4.604 0-8.336-3.732-8.336-8.336s3.732-8.336 8.336-8.336 8.336 3.732 8.336 8.336-3.732 8.336-8.336 8.336zm-200 231.984c-4.599 0-8.328-3.728-8.328-8.328 0-4.599 3.729-8.328 8.328-8.328 4.6 0 8.328 3.729 8.328 8.328 0 4.6-3.728 8.328-8.328 8.328zm-13-18c-4.599 0-8.328-3.728-8.328-8.328 0-4.599 3.729-8.328 8.328-8.328 4.6 0 8.328 3.729 8.328 8.328 0 4.6-3.728 8.328-8.328 8.328zm-14 18.016c-4.604 0-8.336-3.732-8.336-8.336s3.732-8.336 8.336-8.336 8.336 3.732 8.336 8.336-3.732 8.336-8.336 8.336zm-5-308.016c-4.599 0-8.328-3.728-8.328-8.328 0-4.599 3.729-8.328 8.328-8.328 4.6 0 8.328 3.729 8.328 8.328 0 4.6-3.728 8.328-8.328 8.328zm-49-49c-4.599 0-8.328-3.728-8.328-8.328 0-4.599 3.729-8.328 8.328-8.328 4.6 0 8.328 3.729 8.328 8.328 0 4.6-3.728 8.328-8.328 8.328zm-66 139c-4.599 0-8.328-3.728-8.328-8.328 0-4.599 3.729-8.328 8.328-8.328 4.6 0 8.328 3.729 8.328 8.328 0 4.6-3.728 8.328-8.328 8.328zm-49-85c-4.599 0-8.328-3.728-8.328-8.328 0-4.599 3.729-8.328 8.328-8.328 4.6 0 8.328 3.729 8.328 8.328 0 4.6-3.728 8.328-8.328 8.328zm-13 18c-4.599 0-8.328-3.728-8.328-8.328 0-4.599 3.729-8.328 8.328-8.328 4.6 0 8.328 3.729 8.328 8.328 0 4.6-3.728 8.328-8.328 8.328zm-14-18c-4.604 0-8.336-3.732-8.336-8.336s3.732-8.336 8.336-8.336 8.336 3.732 8.336 8.336-3.732 8.336-8.336 8.336zm-32 258c-4.599 0-8.328-3.728-8.328-8.328 0-4.599 3.729-8.328 8.328-8.328 4.6 0 8.328 3.729 8.328 8.328 0 4.6-3.728 8.328-8.328 8.328zm-27 .016c-4.604 0-8.336-3.732-8.336-8.336s3.732-8.336 8.336-8.336 8.336 3.732 8.336 8.336-3.732 8.336-8.336 8.336zm-24 57.984c-4.599 0-8.328-3.728-8.328-8.328 0-4.599 3.729-8.328 8.328-8.328 4.6 0 8.328 3.729 8.328 8.328 0 4.6-3.728 8.328-8.328 8.328zm-27 .016c-4.604 0-8.336-3.732-8.336-8.336s3.732-8.336 8.336-8.336 8.336 3.732 8.336 8.336-3.732 8.336-8.336 8.336zm-56-219.016c-4.599 0-8.328-3.728-8.328-8.328 0-4.599 3.729-8.328 8.328-8.328 4.6 0 8.328 3.729 8.328 8.328 0 4.6-3.728 8.328-8.328 8.328zm-82 0c-4.599 0-8.328-3.728-8.328-8.328 0-4.599 3.729-8.328 8.328-8.328 4.6 0 8.328 3.729 8.328 8.328 0 4.6-3.728 8.328-8.328 8.328zm671 25.344c4.604 0 8.336 3.732 8.336 8.336s-3.732 8.336-8.336 8.336-8.336-3.732-8.336-8.336 3.732-8.336 8.336-8.336z" class="cls-1"/></svg>

<svg xmlns="http://www.w3.org/2000/svg" xmlns:xlink="http://www.w3.org/1999/xlink" preserveAspectRatio="xMidYMid" width="776.656" height="386.688" viewBox="0 0 776.656 386.688">
  <defs>
    <style>
      .cls-1 {
        fill: #e7d8ab;
        opacity: 0.3;
        fill-rule: evenodd;
      }
    </style>
  </defs>
  <path d="M768.328,167.656 C763.729,167.656 760.000,163.928 760.000,159.328 C760.000,154.729 763.729,151.000 768.328,151.000 C772.928,151.000 776.656,154.729 776.656,159.328 C776.656,163.928 772.928,167.656 768.328,167.656 ZM706.328,209.656 C701.729,209.656 698.000,205.928 698.000,201.328 C698.000,196.729 701.729,193.000 706.328,193.000 C710.928,193.000 714.656,196.729 714.656,201.328 C714.656,205.928 710.928,209.656 706.328,209.656 ZM706.328,141.656 C701.729,141.656 698.000,137.928 698.000,133.328 C698.000,128.729 701.729,125.000 706.328,125.000 C710.928,125.000 714.656,128.729 714.656,133.328 C714.656,137.928 710.928,141.656 706.328,141.656 ZM693.328,123.656 C688.729,123.656 685.000,119.928 685.000,115.328 C685.000,110.729 688.729,107.000 693.328,107.000 C697.928,107.000 701.656,110.729 701.656,115.328 C701.656,119.928 697.928,123.656 693.328,123.656 ZM679.328,141.672 C674.724,141.672 670.992,137.940 670.992,133.336 C670.992,128.732 674.724,125.000 679.328,125.000 C683.932,125.000 687.664,128.732 687.664,133.336 C687.664,137.940 683.932,141.672 679.328,141.672 ZM479.328,373.656 C474.729,373.656 471.000,369.928 471.000,365.328 C471.000,360.729 474.729,357.000 479.328,357.000 C483.928,357.000 487.656,360.729 487.656,365.328 C487.656,369.928 483.928,373.656 479.328,373.656 ZM466.328,355.656 C461.729,355.656 458.000,351.928 458.000,347.328 C458.000,342.729 461.729,339.000 466.328,339.000 C470.928,339.000 474.656,342.729 474.656,347.328 C474.656,351.928 470.928,355.656 466.328,355.656 ZM452.328,373.672 C447.724,373.672 443.992,369.940 443.992,365.336 C443.992,360.732 447.724,357.000 452.328,357.000 C456.932,357.000 460.664,360.732 460.664,365.336 C460.664,369.940 456.932,373.672 452.328,373.672 ZM447.328,65.656 C442.729,65.656 439.000,61.928 439.000,57.328 C439.000,52.729 442.729,49.000 447.328,49.000 C451.928,49.000 455.656,52.729 455.656,57.328 C455.656,61.928 451.928,65.656 447.328,65.656 ZM398.328,16.656 C393.729,16.656 390.000,12.928 390.000,8.328 C390.000,3.729 393.729,0.000 398.328,0.000 C402.928,0.000 406.656,3.729 406.656,8.328 C406.656,12.928 402.928,16.656 398.328,16.656 ZM332.328,155.656 C327.729,155.656 324.000,151.928 324.000,147.328 C324.000,142.729 327.729,139.000 332.328,139.000 C336.928,139.000 340.656,142.729 340.656,147.328 C340.656,151.928 336.928,155.656 332.328,155.656 ZM283.328,70.656 C278.729,70.656 275.000,66.928 275.000,62.328 C275.000,57.729 278.729,54.000 283.328,54.000 C287.928,54.000 291.656,57.729 291.656,62.328 C291.656,66.928 287.928,70.656 283.328,70.656 ZM270.328,88.656 C265.729,88.656 262.000,84.928 262.000,80.328 C262.000,75.729 265.729,72.000 270.328,72.000 C274.928,72.000 278.656,75.729 278.656,80.328 C278.656,84.928 274.928,88.656 270.328,88.656 ZM256.328,70.656 C251.724,70.656 247.992,66.924 247.992,62.320 C247.992,57.716 251.724,53.984 256.328,53.984 C260.932,53.984 264.664,57.716 264.664,62.320 C264.664,66.924 260.932,70.656 256.328,70.656 ZM224.328,328.656 C219.729,328.656 216.000,324.928 216.000,320.328 C216.000,315.729 219.729,312.000 224.328,312.000 C228.928,312.000 232.656,315.729 232.656,320.328 C232.656,324.928 228.928,328.656 224.328,328.656 ZM197.328,328.672 C192.724,328.672 188.992,324.940 188.992,320.336 C188.992,315.732 192.724,312.000 197.328,312.000 C201.932,312.000 205.664,315.732 205.664,320.336 C205.664,324.940 201.932,328.672 197.328,328.672 ZM173.328,386.656 C168.729,386.656 165.000,382.928 165.000,378.328 C165.000,373.729 168.729,370.000 173.328,370.000 C177.928,370.000 181.656,373.729 181.656,378.328 C181.656,382.928 177.928,386.656 173.328,386.656 ZM146.328,386.672 C141.724,386.672 137.992,382.940 137.992,378.336 C137.992,373.732 141.724,370.000 146.328,370.000 C150.932,370.000 154.664,373.732 154.664,378.336 C154.664,382.940 150.932,386.672 146.328,386.672 ZM90.328,167.656 C85.729,167.656 82.000,163.928 82.000,159.328 C82.000,154.729 85.729,151.000 90.328,151.000 C94.928,151.000 98.656,154.729 98.656,159.328 C98.656,163.928 94.928,167.656 90.328,167.656 ZM8.328,167.656 C3.729,167.656 0.000,163.928 0.000,159.328 C0.000,154.729 3.729,151.000 8.328,151.000 C12.928,151.000 16.656,154.729 16.656,159.328 C16.656,163.928 12.928,167.656 8.328,167.656 ZM679.328,193.000 C683.932,193.000 687.664,196.732 687.664,201.336 C687.664,205.940 683.932,209.672 679.328,209.672 C674.724,209.672 670.992,205.940 670.992,201.336 C670.992,196.732 674.724,193.000 679.328,193.000 Z" class="cls-1"/>
</svg>
